Simply-Green-Circles/scalable/apps/vlc.svg

<?xml version="1.0" encoding="UTF-8" standalone="no"?>
<svg
   xmlns:dc="http://purl.org/dc/elements/1.1/"
   xmlns:cc="http://creativecommons.org/ns#"
   xmlns:rdf="http://www.w3.org/1999/02/22-rdf-syntax-ns#"
   xmlns:svg="http://www.w3.org/2000/svg"
   xmlns="http://www.w3.org/2000/svg"
   xmlns:sodipodi="http://sodipodi.sourceforge.net/DTD/sodipodi-0.dtd"
   xmlns:inkscape="http://www.inkscape.org/namespaces/inkscape"
   width="48"
   height="48"
   viewBox="0 0 12.7 12.7"
   version="1.1"
   id="svg6"
   sodipodi:docname="vlc.svg"
   inkscape:version="0.92.4 (5da689c313, 2019-01-14)">
  <metadata
     id="metadata12">
    <rdf:RDF>
      <cc:Work
         rdf:about="">
        <dc:format>image/svg+xml</dc:format>
        <dc:type
           rdf:resource="http://purl.org/dc/dcmitype/StillImage" />
        <dc:title></dc:title>
      </cc:Work>
    </rdf:RDF>
  </metadata>
  <defs
     id="defs10" />
  <sodipodi:namedview
     pagecolor="#ffffff"
     bordercolor="#666666"
     borderopacity="1"
     objecttolerance="10"
     gridtolerance="10"
     guidetolerance="10"
     inkscape:pageopacity="0"
     inkscape:pageshadow="2"
     inkscape:window-width="1087"
     inkscape:window-height="480"
     id="namedview8"
     showgrid="false"
     inkscape:zoom="4.9166667"
     inkscape:cx="2.1355932"
     inkscape:cy="24"
     inkscape:window-x="0"
     inkscape:window-y="25"
     inkscape:window-maximized="0"
     inkscape:current-layer="svg6" />
  <path
     d="m 6.344,0.073 a 6.29,6.29 0 0 0 -6.29,6.29 6.29,6.29 0 0 0 6.29,6.288 6.29,6.29 0 0 0 6.29,-6.289 6.29,6.29 0 0 0 -6.29,-6.29 z M 6.326,1.009 A 5.407,5.407 0 0 1 11.733,6.416 5.407,5.407 0 0 1 6.326,11.823 5.407,5.407 0 0 1 0.92,6.416 5.407,5.407 0 0 1 6.326,1.01 Z"
     id="path2"
     inkscape:connector-curvature="0"
     style="fill:#2ca02c" />
  <path
     d="m 6.394,1.868 c -0.238,0 -0.493,0.065 -0.769,0.21 L 5.236,3.452 c 0.786,0.393 1.54,0.333 2.275,0 L 7.066,2.038 A 1.446,1.446 0 0 0 6.394,1.868 Z M 4.77,5.032 4.332,6.513 c 1.458,0.675 2.82,0.624 4.07,-0.05 L 7.979,5.033 C 6.931,5.374 5.87,5.515 4.77,5.032 Z m 3.632,1.43 0.358,1.24 C 7.644,8.693 5.287,9.061 3.98,7.716 L 4.332,6.513 3.582,6.515 2.395,9.298 C 2.392,9.464 2.419,9.697 2.716,9.762 l 7.31,0.012 C 10.34,9.581 10.316,9.447 10.298,9.279 L 9.13,6.476 Z"
     id="path4"
     inkscape:connector-curvature="0"
     style="opacity:0.75;fill:#ff6600" />
</svg>

<svg xmlns="http://www.w3.org/2000/svg" width="48" height="48" viewBox="0 0 12.7 12.7"><path fill="#2ca02c" d="M6.34.07a6.29 6.29 0 0 0-6.29 6.3 6.29 6.29 0 0 0 6.3 6.28 6.29 6.29 0 0 0 6.28-6.29A6.29 6.29 0 0 0 6.34.07zm-.01.94a5.4 5.4 0 0 1 5.4 5.4 5.4 5.4 0 0 1-5.4 5.41 5.4 5.4 0 0 1-5.41-5.4A5.4 5.4 0 0 1 6.32 1z"/><path fill="#f60" d="M6.4 1.87c-.24 0-.5.06-.78.2l-.38 1.38c.78.4 1.54.34 2.27 0l-.44-1.41a1.45 1.45 0 0 0-.68-.17zM4.76 5.03l-.44 1.48c1.46.68 2.82.63 4.07-.05l-.42-1.43c-1.05.34-2.11.49-3.21 0zM8.4 6.46l.36 1.24c-1.12 1-3.47 1.36-4.78.02l.35-1.2h-.75L2.4 9.3c0 .16.03.4.33.46l7.3.01c.32-.19.3-.32.28-.5l-1.17-2.8z" opacity=".75"/></svg>
